Resources/Public/Icons/solid/franc-sign.svg

<svg xmlns="http://www.w3.org/2000/svg" viewBox="0 0 320 512"><!--! Font Awesome Free 6.6.0 by @fontawesome - https://fontawesome.com License - https://fontawesome.com/license/free (Icons: CC BY 4.0, Fonts: SIL OFL 1.1, Code: MIT License) Copyright 2024 Fonticons, Inc. --><path d="M80 32C62.3 32 48 46.3 48 64l0 160 0 96-16 0c-17.7 0-32 14.3-32 32s14.3 32 32 32l16 0 0 64c0 17.7 14.3 32 32 32s32-14.3 32-32l0-64 80 0c17.7 0 32-14.3 32-32s-14.3-32-32-32l-80 0 0-64 144 0c17.7 0 32-14.3 32-32s-14.3-32-32-32l-144 0 0-96 176 0c17.7 0 32-14.3 32-32s-14.3-32-32-32L80 32z"/></svg>

<svg xmlns="http://www.w3.org/2000/svg" viewBox="0 0 320 512"><!--! Font Awesome Free 6.5.1 by @fontawesome - https://fontawesome.com License - https://fontawesome.com/license/free (Icons: CC BY 4.0, Fonts: SIL OFL 1.1, Code: MIT License) Copyright 2023 Fonticons, Inc. --><path d="M80 32C62.3 32 48 46.3 48 64V224v96H32c-17.7 0-32 14.3-32 32s14.3 32 32 32H48v64c0 17.7 14.3 32 32 32s32-14.3 32-32V384h80c17.7 0 32-14.3 32-32s-14.3-32-32-32H112V256H256c17.7 0 32-14.3 32-32s-14.3-32-32-32H112V96H288c17.7 0 32-14.3 32-32s-14.3-32-32-32H80z"/></svg>
